static/img/kroki/3eede0a159f26d943392e4b373872746.svg

<?xml version="1.0" encoding="us-ascii" standalone="no"?><svg xmlns="http://www.w3.org/2000/svg" xmlns:xlink="http://www.w3.org/1999/xlink" contentStyleType="text/css" height="374px" preserveAspectRatio="none" style="width:303px;height:374px;" version="1.1" viewBox="0 0 303 374" width="303px" zoomAndPan="magnify"><defs/><g><!--class aws_ec2_subnet--><g id="elem_aws_ec2_subnet"><rect codeLine="23" fill="#3D176E" height="39.7891" id="aws_ec2_subnet" rx="2.5" ry="2.5" style="stroke:#000D19;stroke-width:0.5;" width="179" x="75" y="328.58"/><ellipse cx="90" cy="348.4745" fill="#ADD1B2" rx="11" ry="11" style="stroke:#181818;stroke-width:1.0;"/><path d="M92.9688,354.1152 Q92.3906,354.412 91.75,354.5527 Q91.1094,354.7089 90.4063,354.7089 Q87.9063,354.7089 86.5781,353.0683 Q85.2656,351.412 85.2656,348.287 Q85.2656,345.162 86.5781,343.5058 Q87.9063,341.8495 90.4063,341.8495 Q91.1094,341.8495 91.75,342.0058 Q92.4063,342.162 92.9688,342.4589 L92.9688,345.1777 Q92.3438,344.5995 91.75,344.3339 Q91.1563,344.0527 90.5313,344.0527 Q89.1875,344.0527 88.5,345.1308 Q87.8125,346.1933 87.8125,348.287 Q87.8125,350.3808 88.5,351.4589 Q89.1875,352.5214 90.5313,352.5214 Q91.1563,352.5214 91.75,352.2558 Q92.3438,351.9745 92.9688,351.3964 L92.9688,354.1152 Z " fill="#000000"/><text fill="#D9B8FF" font-family="Helvetica" font-size="17" lengthAdjust="spacing" textLength="137" x="109" y="354.3598">aws_ec2_subnet</text></g><!--class aws_resource--><g id="elem_aws_resource"><rect codeLine="26" fill="#3D176E" height="39.7891" id="aws_resource" rx="2.5" ry="2.5" style="stroke:#000D19;stroke-width:0.5;" width="155" x="7" y="167.79"/><ellipse cx="22" cy="187.6845" fill="#ADD1B2" rx="11" ry="11" style="stroke:#181818;stroke-width:1.0;"/><path d="M24.9688,193.3252 Q24.3906,193.622 23.75,193.7627 Q23.1094,193.9189 22.4063,193.9189 Q19.9063,193.9189 18.5781,192.2783 Q17.2656,190.622 17.2656,187.497 Q17.2656,184.372 18.5781,182.7158 Q19.9063,181.0595 22.4063,181.0595 Q23.1094,181.0595 23.75,181.2158 Q24.4063,181.372 24.9688,181.6689 L24.9688,184.3877 Q24.3438,183.8095 23.75,183.5439 Q23.1563,183.2627 22.5313,183.2627 Q21.1875,183.2627 20.5,184.3408 Q19.8125,185.4033 19.8125,187.497 Q19.8125,189.5908 20.5,190.6689 Q21.1875,191.7314 22.5313,191.7314 Q23.1563,191.7314 23.75,191.4658 Q24.3438,191.1845 24.9688,190.6064 L24.9688,193.3252 Z " fill="#000000"/><text fill="#D9B8FF" font-family="Helvetica" font-size="17" lengthAdjust="spacing" textLength="113" x="41" y="193.5698">aws_resource</text></g><!--class resource--><g id="elem_resource"><rect codeLine="29" fill="#3D176E" height="39.7891" id="resource" rx="2.5" ry="2.5" style="stroke:#000D19;stroke-width:0.5;" width="113" x="108" y="7"/><ellipse cx="123" cy="26.8945" fill="#ADD1B2" rx="11" ry="11" style="stroke:#181818;stroke-width:1.0;"/><path d="M125.9688,32.5352 Q125.3906,32.832 124.75,32.9727 Q124.1094,33.1289 123.4063,33.1289 Q120.9063,33.1289 119.5781,31.4883 Q118.2656,29.832 118.2656,26.707 Q118.2656,23.582 119.5781,21.9258 Q120.9063,20.2695 123.4063,20.2695 Q124.1094,20.2695 124.75,20.4258 Q125.4063,20.582 125.9688,20.8789 L125.9688,23.5977 Q125.3438,23.0195 124.75,22.7539 Q124.1563,22.4727 123.5313,22.4727 Q122.1875,22.4727 121.5,23.5508 Q120.8125,24.6133 120.8125,26.707 Q120.8125,28.8008 121.5,29.8789 Q122.1875,30.9414 123.5313,30.9414 Q124.1563,30.9414 124.75,30.6758 Q125.3438,30.3945 125.9688,29.8164 L125.9688,32.5352 Z " fill="#000000"/><text fill="#D9B8FF" font-family="Helvetica" font-size="17" lengthAdjust="spacing" textLength="71" x="142" y="32.7798">resource</text></g><!--class subnet--><g id="elem_subnet"><rect codeLine="32" fill="#3D176E" height="39.7891" id="subnet" rx="2.5" ry="2.5" style="stroke:#000D19;stroke-width:0.5;" width="99" x="197" y="167.79"/><ellipse cx="212" cy="187.6845" fill="#ADD1B2" rx="11" ry="11" style="stroke:#181818;stroke-width:1.0;"/><path d="M214.9688,193.3252 Q214.3906,193.622 213.75,193.7627 Q213.1094,193.9189 212.4063,193.9189 Q209.9063,193.9189 208.5781,192.2783 Q207.2656,190.622 207.2656,187.497 Q207.2656,184.372 208.5781,182.7158 Q209.9063,181.0595 212.4063,181.0595 Q213.1094,181.0595 213.75,181.2158 Q214.4063,181.372 214.9688,181.6689 L214.9688,184.3877 Q214.3438,183.8095 213.75,183.5439 Q213.1563,183.2627 212.5313,183.2627 Q211.1875,183.2627 210.5,184.3408 Q209.8125,185.4033 209.8125,187.497 Q209.8125,189.5908 210.5,190.6689 Q211.1875,191.7314 212.5313,191.7314 Q213.1563,191.7314 213.75,191.4658 Q214.3438,191.1845 214.9688,190.6064 L214.9688,193.3252 Z " fill="#000000"/><text fill="#D9B8FF" font-family="Helvetica" font-size="17" lengthAdjust="spacing" textLength="57" x="231" y="193.5698">subnet</text></g><!--reverse link aws_resource to aws_ec2_subnet--><g id="link_aws_resource_aws_ec2_subnet"><path codeLine="35" d="M102.2504,223.9143 C117.6304,254.4343 139.42,297.69 154.82,328.25 " fill="none" id="aws_resource-backto-aws_ec2_subnet" style="stroke:#FFAF37;stroke-width:2.0;"/><polygon fill="none" points="94.15,207.84,96.8923,226.6145,107.6085,221.2142,94.15,207.84" style="stroke:#FFAF37;stroke-width:2.0;"/></g><!--reverse link subnet to aws_ec2_subnet--><g id="link_subnet_aws_ec2_subnet"><path codeLine="36" d="M228.3512,223.8335 C212.5912,254.3535 190.21,297.69 174.43,328.25 " fill="none" id="subnet-backto-aws_ec2_subnet" style="stroke:#FFAF37;stroke-width:2.0;"/><polygon fill="none" points="236.61,207.84,223.0201,221.0806,233.6824,226.5864,236.61,207.84" style="stroke:#FFAF37;stroke-width:2.0;"/></g><!--reverse link resource to aws_resource--><g id="link_resource_aws_resource"><path codeLine="37" d="M146.7496,63.1243 C131.3696,93.6443 109.58,136.9 94.18,167.46 " fill="none" id="resource-backto-aws_resource" style="stroke:#FFAF37;stroke-width:2.0;"/><polygon fill="none" points="154.85,47.05,141.3915,60.4242,152.1077,65.8245,154.85,47.05" style="stroke:#FFAF37;stroke-width:2.0;"/></g><!--reverse link resource to subnet--><g id="link_resource_subnet"><path codeLine="38" d="M182.6488,63.0435 C198.4088,93.5635 220.79,136.9 236.57,167.46 " fill="none" id="resource-backto-subnet" style="stroke:#FFAF37;stroke-width:2.0;"/><polygon fill="none" points="174.39,47.05,177.3176,65.7964,187.9799,60.2906,174.39,47.05" style="stroke:#FFAF37;stroke-width:2.0;"/></g><!--SRC=[XP3DReCm48JlF8Mbd94WKKkGUacGglOILKtlaR7NmG9ij3P5wS-xjpIaSWn9hZFVxCvk8JaGg1jx83NKEQ09J2bLGv7MP8MekqnN6ibC22eMYMy-QcLl0XjQ0tc2wXsiPDGdtWh9IWN6aBbZhIahzwXRnO_ZBL9bVYrGrg6oYXgpiXPbtbfmol0qNmhXa_xGsOB7oJsCC8qSS42YAE9nwYCtLrsz-v_OoWyWiVkqZROmgZbQyKTTRTaJJidHeIV_OiSNohbKUtBdQA_7JgW0p_HjGRdkUbhGohXhZ0K4RGyDPAEh85roaKp2pvVWWFMl8xGpEs3pdMbp1PPy1i6tuo0OtI83Lv_ItFHPxk4h34DlIJ3Gazv4yYJvtf3u0G00]--></g></svg>

<svg xmlns="http://www.w3.org/2000/svg" width="303" height="374" viewBox="0 0 303 374"><rect width="179" height="39.789" x="75" y="328.58" fill="#3D176E" rx="2.5" ry="2.5" style="stroke:#000d19;stroke-width:.5"/><circle cx="90" cy="348.474" r="11" fill="#ADD1B2" style="stroke:#181818;stroke-width:1"/><path d="M92.969 354.115q-.578.297-1.219.438-.64.156-1.344.156-2.5 0-3.828-1.64-1.312-1.657-1.312-4.782t1.312-4.781q1.328-1.656 3.828-1.656.703 0 1.344.156.656.156 1.219.453v2.719q-.625-.579-1.219-.844-.594-.281-1.219-.281-1.344 0-2.031 1.078-.687 1.062-.687 3.156t.687 3.172q.688 1.062 2.031 1.062.625 0 1.219-.265.594-.281 1.219-.86z"/><text x="109" y="354.36" fill="#D9B8FF" font-family="Helvetica" font-size="17" textLength="137">aws_ec2_subnet</text><rect width="155" height="39.789" x="7" y="167.79" fill="#3D176E" rx="2.5" ry="2.5" style="stroke:#000d19;stroke-width:.5"/><circle cx="22" cy="187.685" r="11" fill="#ADD1B2" style="stroke:#181818;stroke-width:1"/><path d="M24.969 193.325q-.578.297-1.219.438-.64.156-1.344.156-2.5 0-3.828-1.64-1.312-1.657-1.312-4.782t1.312-4.781q1.328-1.656 3.828-1.656.703 0 1.344.156.656.156 1.219.453v2.719q-.625-.578-1.219-.844-.594-.281-1.219-.281-1.343 0-2.031 1.078-.687 1.062-.687 3.156t.687 3.172q.688 1.062 2.031 1.062.625 0 1.219-.265.594-.281 1.219-.86z"/><text x="41" y="193.57" fill="#D9B8FF" font-family="Helvetica" font-size="17" textLength="113">aws_resource</text><rect width="113" height="39.789" x="108" y="7" fill="#3D176E" rx="2.5" ry="2.5" style="stroke:#000d19;stroke-width:.5"/><circle cx="123" cy="26.895" r="11" fill="#ADD1B2" style="stroke:#181818;stroke-width:1"/><path d="M125.969 32.535q-.578.297-1.219.438-.64.156-1.344.156-2.5 0-3.828-1.64-1.312-1.657-1.312-4.782t1.312-4.781q1.328-1.656 3.828-1.656.703 0 1.344.156.656.156 1.219.453v2.719q-.625-.578-1.219-.844-.594-.281-1.219-.281-1.344 0-2.031 1.078-.687 1.062-.687 3.156t.687 3.172q.688 1.062 2.031 1.062.625 0 1.219-.265.594-.281 1.219-.86z"/><text x="142" y="32.78" fill="#D9B8FF" font-family="Helvetica" font-size="17" textLength="71">resource</text><rect width="99" height="39.789" x="197" y="167.79" fill="#3D176E" rx="2.5" ry="2.5" style="stroke:#000d19;stroke-width:.5"/><circle cx="212" cy="187.685" r="11" fill="#ADD1B2" style="stroke:#181818;stroke-width:1"/><path d="M214.969 193.325q-.578.297-1.219.438-.64.156-1.344.156-2.5 0-3.828-1.64-1.312-1.657-1.312-4.782t1.312-4.781q1.328-1.656 3.828-1.656.703 0 1.344.156.656.156 1.219.453v2.719q-.625-.578-1.219-.844-.594-.281-1.219-.281-1.344 0-2.031 1.078-.687 1.062-.687 3.156t.687 3.172q.688 1.062 2.031 1.062.625 0 1.219-.265.594-.281 1.219-.86z"/><text x="231" y="193.57" fill="#D9B8FF" font-family="Helvetica" font-size="17" textLength="57">subnet</text><g fill="none"><path d="M102.25 223.914c15.38 30.52 37.17 73.776 52.57 104.336" style="stroke:#ffaf37;stroke-width:2"/><path d="m94.15 207.84 2.742 18.774 10.717-5.4z" style="stroke:#ffaf37;stroke-width:2"/></g><path fill="none" d="M228.351 223.834c-15.76 30.52-38.141 73.856-53.921 104.416m62.18-120.41-13.59 13.24 10.662 5.506zM146.75 63.124c-15.38 30.52-37.17 73.776-52.57 104.336m60.67-120.41-13.458 13.374 10.716 5.4zm27.799 15.994c15.76 30.52 38.141 73.856 53.921 104.416M174.39 47.05l2.928 18.746 10.662-5.505z" style="stroke:#ffaf37;stroke-width:2"/></svg>
